X:1
T:A Shout in the Camp
T:John Robson Sweney
T:A Shout in the Camp
T:Public Domain
T:Public Domain
C:John Robson Sweney
Z:Public Domain
%%score ( 1 2 ) ( 3 4 )
L:1/8
M:4/4
K:Ab
V:1 treble 
V:2 treble 
V:3 bass 
V:4 bass 
V:1
 C>E | A2 [EA]>[EA] [EA]2 E>A | c2 [Ac]2 [Ac]4 | [Ae]3 [Af] [Ae][Ac][EA][Ec] | (E2 E>E E2) C>E | %5
w: 1.~There’s a|the camp, for the Lord is|Hal- le- lu-|jah! praise His name. To the|feast * * * of His|
w: 2.~There’s a|the ranks of the King of|Hal- le- lu-|jah! praise His name; While we|drink * * * at the|
w: 3.~There’s a|the camp while our souls re-|Hal- le- lu-|jah! praise His name; There is|room * * * for the|
 A2 [EA]>[EA] [EA]2 E>A | c2 [Ac]2 [Ac]4 | [GB]3 [Ge] [Fe]2 [A=d]2 | [Ge]6 || %9
w: Praise, oh, praise His name. *||||
w: Praise, oh, praise His name. *||||
w: Praise, oh, praise His name. *||||
"^Refrain" [Ge]2 [Gd]>[Gd] [DF]2 [DG]2 | [CA]3 [DB] [Ec]2 [EA]>[Ac] | [Ae]3 [Af] [Ae]2 [Ec]2 | %12
w: |||
w: |||
w: |||
 (E2 E>E E4) | [Ec]2 [Ee]>[Ee] [Ed]2 [Ec]2 | [DB]2 [Ec]2 [Fd]4 | [Ec]3 [EA] [Ec]2 [DB]2 | [CA]6 |] %17
w: |||||
w: |||||
w: |||||
V:2
 C>E | A2 x6 | x8 | x8 | E2 E>E E2 C>E | A2 x2 E>A x2 | c2 x6 | x8 | x6 || x8 | x8 | x8 | %12
w: shout in|here,|||love we a- gain draw near,||||||||
w: shout in|kings,|||rock from the liv- ing springs||||||||
w: shout in|peat|||world at the Sav- ior’s feet,||||||||
 E2 E>E E4 | x8 | x8 | x8 | x6 |] %17
w: |||||
w: |||||
w: |||||
V:3
 C,>E, | A,2 [A,,C]>[A,,C] [A,,C]2 E,>A, | C2 [A,E]2 [A,E]4 | [A,C]3 [A,D] [A,C][A,E][A,C]A, | %4
w: ~ ~|~ ~ ~ ~ ~ ~|~ ~ ~|~ ~ ~ ~ ~ ~|
 ([E,G,]2 [E,G,]>[E,G,] [E,G,]2) C,>E, | A,2 [A,,C]>[A,,C] [A,,C]2 E,>A, | C2 [A,E]2 [A,E]4 | %7
w: ~ * * * ~ ~|~ ~ ~ ~ ~ ~|mil- lions! room|
 [B,E]3 [B,,B,] [B,,B,]2 [B,,B,]2 | [E,B,]6 || [E,B,]2 [E,B,]>[E,B,] [E,B,]2 [E,B,]2 | %10
w: all! Hal- le- lu-|jah!|praise His name! Come to|
 A,3 A, A,2 [A,C]>[A,E] | [A,C]3 [A,D] [A,C]2 A,2 | ([E,G,]2 [E,G,]>[E,G,] [E,G,]4) | %13
w: the ban- quet, great and|praise His name. *||
 A,2 [A,C]>[A,C] [G,B,]2 A,2 | [D,F,]2 [C,=A,]2 [B,,B,]4 | [E,A,]3 [E,C] [E,A,]2 [E,G,]2 | %16
w: |||
 [A,,E,A,]6 |] %17
w: |
V:4
 C,>E, | A,2 x2 E,>A, x2 | C2 x6 | x8 | x6 C,>E, | A,2 x2 E,>A, x2 | C2 x6 | x8 | x6 || x8 | %10
w: ~ ~|~ ~ ~|~||~ ~|Room for the|for||||
 A,3 A, A,2 x2 | x6 A,2 | x8 | A,2 x2 A,2 x2 | x8 | x8 | x6 |] %17
w: small, Praise, oh,|||||||

